X:181
M:4/4
L:1/8
K:D
| A2eA Acec | ABcd e2dB | G2dB eBdB | GBdB GBdB | 
| a2ea ageg | agbg agef | gedc BGG2 | g2ga bged | 
edeg a2ga | bgaa ged2 | dBde g2ge | dBGA BAA2 :|| 

